X: 1
T:Swallows Nest, The
R:double jig
M:6/8
L:1/8
K:G
A/2B/2|cAA EAA|cBA edc|BGG dGG|gfg dcB|!
cAA eAA|cBA e2f|gfg dcB|cAA A2:|!
d|efg a2b|a2b agf|efg a2b|agf g2d|!
efg a2b|a2b agf|gfg dcB|cAA A2:|!
